!!!OTL: Western Ocean
!!!ONM: 64.
**kern
*clefG2
*k[f#c#]
*D:
*M2/4
*>[A,A]
*>norep[A]
*>A
=!|:
*MM132
{8f#
8g
=1
8a
8f#
8f#
8e
=2
4d
8c#
8d
=3
8e
8d
8c#
8B
=4
4A}
{8A
8A
=5
4d
8d
8d
=6
4a
8a
8f#
=7
8f#
4.e
=8
4r}
{8a
8a
=9
8b
8a
8a
8f#
=10
4d
8r
8d
=11
8e
8d
8c#
8B
=12
4A}
{8A
8A
=13
8d
8e
8f#
8g
=14
8a
8f#
8e
8g
=15
8f#
4.d}
==:|!
*-
!!!CNT: Folksongs of Maritime Canada
!!!MRD: 1928///-1932///
!!!OCL: Helen Creighton
!!!YOR: Songs and Ballads from Nova Scotia
!!!PPR: J.M. Dent & Sons, Limited
!!!PPP: Toronto, Canada
!!!PDT: 1932///
!!!reprint: Dover Publications, 1992: ISBN 0-486-21703-5
!!!ENC1: Craig Stuart Sapp (music and bibliographic data)                       
!!!ENC2: Marcus Pearce (phrase markings and key designations)                   
!!!ENC3: Darrell Conklin (phrase markings and key designations)   
!!!END: 2002/04/10/
!!!EEV: 2004/06/05
!!!MPN: Mr. Richard Hartlan and family
!!!PPG: 133
!!!EFL: 65/152
!!!ARE: Canada; Nova Scotia
!!!verses: 5
!!!VTS: 2889189070
